X:1757
T:John Carey's Daughter
M:C|
L:1/8
N:"collected by J. O'Neill"
B:O'Neill's 1757
R:Hornpipe
Z:"Transcribed by Bob Safranek, rjs@gsp.org"
K:D
   A>G | F>d (3dcd f>d (3dcd | fdcd B2 A>G | F>d (3dcd f>d (3dcd | BGFG E2 A>G |
         F>d (3dcd f>d (3dcd | fdcd B2 A>G |    FdcB      AFGE   | D2 d2 D2   :|
|: d2  | f>d (3dcd    Bcde   | fdcd B2 F2  |    BABc      dcde   | fdcd B2 Bc  |
           d>fed      cecA   | B>dBG FAFD  |   E>DCD     EFGA    | F2 D2 D2   :|


